X: 140
T: Pana wołam, Pana proszę,
C: Mikołaj Gomółka
%%abc-version 2.0
%%abcx-abcm2ps-target-version 5.9.1 (29 Sep 2008)
%%abc-creator hum2abc beta
%%abcx-conversion-date 2021/10/04 07:59:10
%%abc-edited-by Marta Lawrence
%%abcx-initial-encoding-date 2020-02-25
%%humdrum-veritas 1095734641
%%humdrum-veritas-data 3764271875
%%linebreak <none>
%%barnumbers 0
L: 1/4
M: C|
N: Derived from pl-wn--sd-xvi-qu-273--142_gomolka-mikolaj--pana-wolam-pana-prosze.krn
%%staves [1 2 3 4]
V: 1 clef=treble
V: 2
V: 3 clef=alto
V: 4
K: Bb
[V:1] D4B2B2 [|] 
[V:2] A,4B,CD=E [|] 
[V:3] D2>C2B,2B,2 [|] 
[V:4] D,4G,2G,2 [|] 
[V:1] A2c2>B2A4 [|] 
[V:2] F2>=E2F3E [|] 
[V:3] C2>B,2A,2A,2 [|] 
[V:4] A,2>G,2F,2F,2 [|] 
[V:1] G2A2d2 [|] 
[V:2] DCD2D2A2 [|] 
[V:3] B,4A,2F2 [|] 
[V:4] G,4D,2D,2 [|] 
[V:1] d4d2d2 [|] 
[V:2] B2>A2G3F [|] 
[V:3] F2>=E2D3C [|] 
[V:4] D2>C2B,3A, [|] 
[V:1] =e2f2g4 [|] 
[V:2] =E2D2CD2C [|] 
[V:3] B,2A,2G,F,G,2 [|] 
[V:4] G,2F,2=E,D,E,2 [|] 
[V:1] f2d2f4 [|] 
[V:2] D2B2A4 [|] 
[V:3] A,2D2C4 [|] 
[V:4] D,2B,2F,4 [|] 
[V:1] =e2d4c4 [|] 
[V:2] G2G2>F2=E4 [|] 
[V:3] C2C2B,2C4 [|] 
[V:4] C,2G,4A,4 [|] 
[V:1] d2B4 [|] 
[V:2] F2D3=E [|] 
[V:3] A,2B,3C [|] 
[V:4] F,2G,4 [|] 
[V:1] A2A4c4 [|] 
[V:2] F2F4G2G2 [|] 
[V:3] D2D4_E4 [|] 
[V:4] D,2D,4C,4 [|] 
[V:1] c2=B2d4 [|] 
[V:2] G2>A2B2 [|] 
[V:3] =E2D2D2 [|] 
[V:4] C,2G,2G,2 [|] 
[V:1] d2d3c [|] 
[V:2] A2G4F2 [|] 
[V:3] A,2B,2A,4 [|] 
[V:4] ^F,2G,2D,4 [|] 
[V:1] =B32 |]  
[V:2] G32 |]  
[V:3] G,32 |]  
[V:4] G,32 |]  


